X: 359
T:In te, domine, speravi
N: Derived from Jos2818-In_te_domine_speravi.krn
C: Josquin des Prez
%%abc-version 2.0
%%abcx-abcm2ps-target-version 5.9.1 (29 Sep 2008)
%%abc-creator hum2abc beta
%%abcx-conversion-date 2019/02/12 16:15:54
%%abc-edited-by Jesse Rodin
%%abc-edited-by Jesse Rodin; Victoria Chang 2011/10/21
%%abcx-initial-encoding-date 2011/10/21/
%%humdrum-veritas 3333935404
%%humdrum-veritas-data 3282418568
%%linebreak <none>
%%barnumbers 0
L: 1/4
M: 2/1
Q: 1/2=120
%%staves [1 2 3 4]
V: 1 clef=treble
V: 2 clef=treble-8
V: 3 clef=treble-8
V: 4 clef=bass
K: F
[V:1] A4A4 | 
[V:2] f4f4 | 
[V:3] c4c4 | 
[V:4] F,4F,4 | 
[V:1] B3AG2F2 | 
[V:2] f3ed4 | 
[V:3] d3cB2A2 | 
[V:4] B,,4B,,4 | 
[V:1] E4F4 | 
[V:2] c4c4 | 
[V:3] G4A4 | 
[V:4] C,4F,4 | 
[V:1] D8 | 
[V:2] z2f4ed | 
[V:3] B6A2 | 
[V:4] B,,8 | 
[V:1] E2F4E2 | 
[V:2] c2B2c4 | 
[V:3] G2F2G4 | 
[V:4] C,2D,2C,4 | 
[V:1] z2F3GAB | 
[V:2] A4F3G | 
[V:3] F4c4 | 
[V:4] C4A,4 | 
[V:1] c4c4 | 
[V:2] ABc4A2- | 
[V:3] F3GABcd | 
[V:4] z2F,3G,A,B, | 
[V:1] c4B4 | 
[V:2] A2c4B2 | 
[V:3] e2f4e2 | 
[V:4] C2B,A,G,4 | 
[V:1] A6G2 | 
[V:2] c4F2G2- | 
[V:3] f2edc2c2- | 
[V:4] F,6E,2 | 
[V:1] F4E4 | 
[V:2] G2F2G2c2- | 
[V:3] c2=B2c4 | 
[V:4] D,4C,4 | 
[V:1] F8 | 
[V:2] c2=BA=B4 | 
[V:3] F8 | 
[V:4] D,8 | 
[V:1] E8 :|]  
[V:2] c8 :|]  
[V:3] G8 :|]  
[V:4] C,8 :|]  
[V:1] c4c4 | 
[V:2] FGABc2A2- | 
[V:3] F3GABcd | 
[V:4] F,4F,G,A,B, | 
[V:1] c4B4 | 
[V:2] A2c4B2 | 
[V:3] e2f4e2 | 
[V:4] C2B,A,G,4 | 
[V:1] A6G2 | 
[V:2] c4F2G2- | 
[V:3] f2edc2c2- | 
[V:4] F,6E,2 | 
[V:1] F4E4 | 
[V:2] G2F2G2c2- | 
[V:3] c2=B2c4 | 
[V:4] D,4C,4 | 
[V:1] F8 | 
[V:2] c2=BA=B4 | 
[V:3] F8 | 
[V:4] D,8 | 
[V:1] E8 | 
[V:2] c4c3B | 
[V:3] G4z4 | 
[V:4] C,4z2C2- | 
[V:1] A6G2 | 
[V:2] AGF4G2- | 
[V:3] F3GABc2- | 
[V:4] CB,A,G,F,2E,2 | 
[V:1] F4E2A2- | 
[V:2] G2F2G2A2 | 
[V:3] c2=B2c4 | 
[V:4] D,4C,4 | 
[V:1] AGFED4 | 
[V:2] F2B3cd2 | 
[V:3] A2d3cBA | 
[V:4] D,4B,,4 | 
[V:1] E2F4E2 | 
[V:2] c2B2c4 | 
[V:3] G2F2G4 | 
[V:4] C,2D,2C,4 | 
[V:1] F8 | 
[V:2] A3Bc4 | 
[V:3] F8 | 
[V:4] z2C3B,A,G, | 
[V:1] A4A4 | 
[V:2] f4f4 | 
[V:3] c4c4 | 
[V:4] F,2F,3E,D,C, | 
[V:1] B3AG2F2 | 
[V:2] f3ed4 | 
[V:3] d3cB2A2 | 
[V:4] B,,4B,,4 | 
[V:1] E4F4 | 
[V:2] c4c4 | 
[V:3] G4A4 | 
[V:4] C,4F,4 | 
[V:1] D8 | 
[V:2] z2f4ed | 
[V:3] B6A2 | 
[V:4] B,,8 | 
[V:1] E2F4E2 | 
[V:2] c2B2c4 | 
[V:3] G2F2G4 | 
[V:4] C,2D,2C,4 | 
[V:1] !fermata!F4z4 | 
[V:2] !fermata!A4z4 | 
[V:3] !fermata!F4z4 | 
[V:4] !fermata!F,,4z4 | 
[V:1] F4F4 | 
[V:2] c4c4 | 
[V:3] A4A4 | 
[V:4] F,4F,4 | 
[V:1] F4F4 | 
[V:2] B6AG | 
[V:3] d4d4 | 
[V:4] B,,4B,,4 | 
[V:1] F4F4 | 
[V:2] A4A4 | 
[V:3] c4c4 | 
[V:4] F,4F,4 | 
[V:1] F8 | 
[V:2] d4d4 | 
[V:3] B6AG | 
[V:4] B,,4B,,4 | 
[V:1] F8 |]  
[V:2] c8 |]  
[V:3] A8 |]  
[V:4] F,8 |]  



